X: 2510
T: Ballydesmond, The
R: slide
M: 12/8
K: Adorian
EFG A2B c2d E3|G3 EDE G2E D3|
EFG A2B c2d E2f|g2e d2e B2A A2G:|
efg a2b a2g e2f|g2a g2e def g3|
efg a2b a2g e2f|g2e d2e B2A A2G:|

